!! 00000] TT[WS
!!!OTL: Quanlang canjun
!!!ARE: Asia, China, Shanxi Dingxiang
!! Ethnic Group: Han
!! WI, 310 (1)
!!!SCT: J0374
!!!YEM: Copyright 1995, estate of Helmut Schaffrath.
**kern
*ICvox
*Ivox
*M2/4
*k[f#]
*G:
{8ee
16b
16dd
16ee
16dd
16b
16a
=1
8ee
16b
16dd
16ee
16dd
16b
16a
=2
8.g
16e
8dd
16ee
16b
=3
8dd
16b
16e
4g}
=4
{16b
16ee
16g
16a
8b
8dd
=5
16g
16a
16b
16b
8dd
16b
16a
=6
16b
16g
16f#
16e
8d
16B
16d
=7
16b
16f#
16e
16B
4d}
=8
{8b
8dd
16r
16dd
16b
16a
=9
16b
16g
16f#
16e
8d
16B
16d
=10
16b
16f#
16e
16B
4d}
==
!!!AGN: Xiaodiao. Xinminge, Xuanchuan
!! Neue Text. Politische Liede
!!!ONB: ESAC (Essen Associative Code) Database: CHINA
!!!AMT: simple duple
!!!AIN: vox
!!!EED: Helmut Schaffrath
!!!EEV: 1.0
*-
